X:1
T:[ID 5-53a]
T:[ID 5-53a]
T:Bezeichnung standardisiert: Menuett Menuet No 1. Violino Secondo
T:Urheber unbekannt Erstbeleg: 1773 (Datum in der schriftlichen Quelle) Datum in der hier transkribierten schriftlichen Quelle: 1775
C:Urheber unbekannt
C:Erstbeleg: 1773 (Datum in der schriftlichen Quelle)
C:Datum in der hier transkribierten schriftlichen Quelle: 1775
L:1/8
M:3/4
K:D
V:1 treble 
V:1
 FAdFec | f4 df | gfedcB | ABcd c2 | FAdFec | f4 df | gedGFE | F6 :: fefgfd | c2 d2 e2 | fefgfd | %11
 c2 d2 e2 | FAdFec | f4 df | gedGFE | F6 :| %16

